X: 02101
T: The Bob o' Dowally
T: Salmond tail up the water
T: Bainis choinich
T: Carlin is your daughter ready?
R:strathspey
B:RSCDS 2-10a
Z:1997 by John Chambers <jc:trillian.mit.edu>
N:Pronounced Dooley.  A village near Dunkeld.
M:C
L:1/8
K:A
|: "A"A>e e2 e>A c<A | "E7"B>e e2 "G"d>=G B<G \
|  "A"A>e e2 e>A c<A | "E7"E/E/E E2 "G"=G>A B<G :|
|: "A"A>a a>e c>a c<A | "G"B>=g g>e d>g B<=G \
|  "A"A>a a>e c>e a<e | "G"=g<b "(C)"e<g "G"d<g B<=G :|
%%center Book02/02101-Bob_o_Dowally-1.abc

%%sep 1 1 500
%%sep 1 1 500

